public/avatar/hat/184.svg

<svg xmlns:xlink="http://www.w3.org/1999/xlink" height="92.9" width="100.7" xmlns="http://www.w3.org/2000/svg"><use height="32.35" transform="translate(21.35 36.75)" width="33.9" xlink:href="#a"/><defs><g id="a" fill-rule="evenodd"><path d="M2.3-12.95q.4-.15.65.2l.1.25-.2.4q-1 1-1.1 4.75l.1 1.5q.3 1.15.6 1.55l-.05-.65q0-1.6.65-2.75.15-.35.6-.25l.4.45q.1 1.85 2.5 4.05 1.95 1.7 2.3 3.1.35-.95.35-1.8L9-3.25l-.05-.2.2-.35.55-.1q3.75 1.95 3.65 7l-.15 1.65.35-1.05v-.25l-.05-.1q0-.3.3-.4l.6.05q2.15 1.95 2.2 3.85v.1q-.05.9-2.35 3.2l-.1 4.2q-3.05 2-3.85 1.75l-.35-.35.2-4.75-1.05-.25-.35-.25-.05-.2q0-.9.3-1.45l-.8.05q-.6 0-.75-.4l-.05-.2v-.25l.25-1.15q-3.2.15-3.5-.45L4.1 6.3v-.65Q2.25 6.65.35 7.6q-1.55.7-4.65-1.65l-.05.8-.3.35-2.8-.1-.6-.05.2.55-.05.15-.25.35-2.8 2.35 1.25 2.55.15.3-.05.1-.2.3-1.35.55.05 2.15-.15.35-.4.15q-1.5-.15-2.65-1.45l-.1-.25q-.2-1.2-1.5-2.65-1.9-2.4-1.2-4.35.2-.4.55-.3.45 0 .45.4l.1.15-.15-1V6.3q0-3.35 1.7-4.85l.5-.1q.35.1.35.4.25 1.3 1.1 2.15l-.1-.65q.05-2.35 3.55-5.2Q-6.9-3.8-6.5-4.8l-.25-2q0-2.95 2-3.8h.5l.25.4v.05l-.2 1.5q0 1.55 1.05 2.85.2-4.35 5.45-7.1v-.05" fill="#9a0000" transform="translate(17.3 13)"/><path d="M1.35-11.1q-.9.55-.55 3.95.35 3.75 2.75 4.85-.75-1.85-.05-3.3.4.95 2.85 3.25Q8.4-.45 8.5 1.85 9.15 1.7 9.9.3q.8-1.6.3-2.6Q12-.95 12.35 2.4q.25 2.5-.25 4.75l1.4-.9q1-1 .85-1.8 1.95 1.95.55 3.8l-1.7 1.8.05 3.5q-2.1 1.85-2.2 1.25.3-4.7-.05-4.7l-1.25-.15.75-2.2L8.45 8q-.1-1.3.35-2.15-4.35.75-3.7 0l-.35-1.8Q2.6 5.65-.45 6.8q-1.6-.3-3.3-1.55l-1.15-1-.45 1.9-4.2.1L-9 7.4l-3.25 2.6 1.4 2.95-1.15.75-.15 1.9q-.8-.1-1.35-.75-.25-1.45-1.45-2.9-1.25-1.4-1.35-2.55.65.8 1.7 0-.55-.95-.6-3.1 0-2.45.9-3.4.1.65 1 1.4 1 .85 1.85.7-.85-2.7 2.05-5.35 3.65-3.4 3.9-4.15l-.45-2.05.75-2.35q0 2.85 3 5.3-.3-1.45.4-3.5.9-2.75 3.15-4" fill="#fb6800" transform="translate(17.3 13)"/><path d="M-.45 6.8Q-2 6.5-3.7 5.3l-1.2-.9-.5 1.9-4.15-.05q.65 1.1.55 1.15l-3.25 2.6 1.65 3.1-1.4.45-.15 2.05q-.7-.1-1.35-.75 0-1.8-.95-2.85-1.05-1.1-1.15-1.85l1.15.35 1.35-.15q-.65-1.05-1-2.65-.45-2.1.4-2.9l1.15.85 1.95.25q-.35-2.6 1.85-4.25Q-5.8-.5-5.1-2.1q0 1.45 3.4 3.9-.75-4.2 1.85-6.15Q.4-.7 4.35 1.3q-.75-1.7.2-3.4.3.6 2.1 2.7Q8 2.1 8.1 4.05l1.45-.95q.95-.9 1-1.8 1.85 2.75.85 6.55l1.1-.05q.75-.1.6-.7.55 1.45 0 2.25l-.55.75.2 3.8q-1.65 1.25-1.7.9l.05-4.6-1.35-.25.75-2.2L8.45 8q-.1-1.35.35-2.15l-3.65.1-.4-1.9q-3.5 2.2-5.2 2.75" fill="#ffcd00" transform="translate(17.3 13)"/><path d="M10.65 4.05q.2.6-.3 3.85l-1.25.2-.65-.1q-.1-1.3.35-2.15-4.35.75-3.7 0l-.35-1.7.8.35q-1.2-2.4-.4-3.5.3.85 1.5 2 1.05.95 1.15 2.25l1.5-.2q1.05 0 1.35-1m-.45 4.7q1.85.4 2.45-.25.1 1.9-.6 2.25l.6 3.3q-1.1.75-1.6.75.15-4.7-.05-4.7l-1.25-.15.45-1.2m-19.55-1.5-.15-.85.5 1-3.25 2.6q.8 1.95 1.65 3.1l-1.4.6-.15 1.9-1.25-.65-.8-3.8q.65.15 1.95-.5-.7-.85-.7-4.25 1.9 1.55 3.6.85m7-2.45Q-4 2.6-3.85 1.5l4.4 3-.8-1.9Q-.9 1-.7-.25q.05.8 1.7 1.9L4.7 4.1Q2.6 5.65-.45 6.8-2.9 6.3-4.9 4.3l-.45 1.85-4.15.1q0-1.9 1.25-3.35-.05 1.15.4 2.35.35-2.6 1.9-4.5.15 1.7 3.6 4.05" fill="#ffff94" transform="translate(17.3 13)"/><path d="M-14.65 16.5q.7.75 2.35.9.3 0 .45.25.1.3-.05.5-.45.8-2.25 1.2l-1.8-.1-.15-.15q-.5-.9.65-2.5.15-.25.4-.25t.4.15" fill="#9a0000" transform="translate(17.3 13)"/><path d="M-15 17.2q.65.65 2.4.8-.35.6-1.45.75l-1.3-.05.35-1.5" fill="#ffff94" transform="translate(17.3 13)"/><path d="m15.85 18.1-.15.15-1.75.1q-1.85-.4-2.3-1.2-.15-.2 0-.5l.4-.25q1.75-.15 2.35-.9.25-.15.45-.15l.35.25q1.15 1.6.65 2.5" fill="#9a0000" transform="translate(17.3 13)"/><path d="m14.75 16.2.35 1.5-1.3.05q-1.1-.15-1.45-.75 1.7-.1 2.4-.8" fill="#ffff94" transform="translate(17.3 13)"/></g></defs></svg>

<?xml version="1.0" encoding="UTF-8" standalone="no"?>
<svg xmlns:xlink="http://www.w3.org/1999/xlink" height="92.9px" width="100.7px" xmlns="http://www.w3.org/2000/svg">
  <g transform="matrix(1.0, 0.0, 0.0, 1.0, 38.65, 49.75)">
    <use height="32.35" transform="matrix(1.0, 0.0, 0.0, 1.0, -17.3, -13.0)" width="33.9" xlink:href="#shape0"/>
  </g>
  <defs>
    <g id="shape0" transform="matrix(1.0, 0.0, 0.0, 1.0, 17.3, 13.0)">
      <path d="M2.3 -12.95 Q2.7 -13.1 2.95 -12.75 L3.05 -12.5 2.85 -12.1 Q1.85 -11.1 1.75 -7.35 L1.85 -5.85 Q2.15 -4.7 2.45 -4.3 L2.4 -4.95 Q2.4 -6.55 3.05 -7.7 3.2 -8.05 3.65 -7.95 L4.05 -7.5 Q4.15 -5.65 6.55 -3.45 8.5 -1.75 8.85 -0.35 9.2 -1.3 9.2 -2.15 L9.0 -3.25 8.95 -3.45 9.15 -3.8 9.7 -3.9 Q13.45 -1.95 13.35 3.1 L13.2 4.75 13.55 3.7 13.55 3.45 13.5 3.35 Q13.5 3.05 13.8 2.95 L14.4 3.0 Q16.55 4.95 16.6 6.85 L16.6 6.95 Q16.55 7.85 14.25 10.15 L14.15 14.35 Q11.1 16.35 10.3 16.1 L9.95 15.75 10.15 11.0 9.1 10.75 8.75 10.5 8.7 10.3 Q8.7 9.4 9.0 8.85 L8.2 8.9 Q7.6 8.9 7.45 8.5 L7.4 8.3 7.4 8.05 7.65 6.9 Q4.45 7.05 4.15 6.45 L4.1 6.3 4.1 5.65 Q2.25 6.65 0.35 7.6 -1.2 8.3 -4.3 5.95 L-4.35 6.75 -4.65 7.1 -7.45 7.0 -8.05 6.95 -7.85 7.5 -7.9 7.65 -8.15 8.0 -10.95 10.35 -9.7 12.9 -9.55 13.2 -9.6 13.3 -9.8 13.6 -11.15 14.15 -11.1 16.3 -11.25 16.65 -11.65 16.8 Q-13.15 16.65 -14.3 15.35 L-14.4 15.1 Q-14.6 13.9 -15.9 12.45 -17.8 10.05 -17.1 8.1 -16.9 7.7 -16.55 7.8 -16.1 7.8 -16.1 8.2 L-16.0 8.35 -16.15 7.35 -16.15 6.3 Q-16.15 2.95 -14.45 1.45 L-13.95 1.35 Q-13.6 1.45 -13.6 1.75 -13.35 3.05 -12.5 3.9 L-12.6 3.25 Q-12.55 0.9 -9.05 -1.95 -6.9 -3.8 -6.5 -4.8 L-6.75 -6.8 Q-6.75 -9.75 -4.75 -10.6 L-4.25 -10.6 -4.0 -10.2 -4.0 -10.15 -4.2 -8.65 Q-4.2 -7.1 -3.15 -5.8 -2.95 -10.15 2.3 -12.9 L2.3 -12.95" fill="#9a0000" fill-rule="evenodd" stroke="none"/>
      <path d="M1.35 -11.1 Q0.45 -10.55 0.8 -7.15 1.15 -3.4 3.55 -2.3 2.8 -4.15 3.5 -5.6 3.9 -4.65 6.35 -2.35 8.4 -0.45 8.5 1.85 9.15 1.7 9.9 0.3 10.7 -1.3 10.2 -2.3 12.0 -0.95 12.35 2.4 12.6 4.9 12.1 7.15 L13.5 6.25 Q14.5 5.25 14.35 4.45 16.3 6.4 14.9 8.25 L13.2 10.05 13.25 13.55 Q11.15 15.4 11.05 14.8 11.35 10.1 11.0 10.1 L9.75 9.95 10.5 7.75 8.45 8.0 Q8.35 6.7 8.8 5.85 4.45 6.6 5.1 5.85 L4.75 4.05 Q2.6 5.65 -0.45 6.8 -2.05 6.5 -3.75 5.25 L-4.9 4.25 -5.35 6.15 -9.55 6.25 -9.0 7.4 -12.25 10.0 -10.85 12.95 -12.0 13.7 -12.15 15.6 Q-12.95 15.5 -13.5 14.85 -13.75 13.4 -14.95 11.95 -16.2 10.55 -16.3 9.4 -15.65 10.2 -14.6 9.4 -15.15 8.45 -15.2 6.3 -15.2 3.85 -14.3 2.9 -14.2 3.55 -13.3 4.3 -12.3 5.15 -11.45 5.0 -12.3 2.3 -9.4 -0.35 -5.75 -3.75 -5.5 -4.5 L-5.95 -6.55 -5.2 -8.9 Q-5.2 -6.05 -2.2 -3.6 -2.5 -5.05 -1.8 -7.1 -0.9 -9.85 1.35 -11.1" fill="#fb6800" fill-rule="evenodd" stroke="none"/>
      <path d="M-0.45 6.8 Q-2.0 6.5 -3.7 5.3 L-4.9 4.4 -5.4 6.3 -9.55 6.25 Q-8.9 7.35 -9.0 7.4 L-12.25 10.0 -10.6 13.1 -12.0 13.55 -12.15 15.6 Q-12.85 15.5 -13.5 14.85 -13.5 13.05 -14.45 12.0 -15.5 10.9 -15.6 10.15 L-14.45 10.5 -13.1 10.35 Q-13.75 9.3 -14.1 7.7 -14.55 5.6 -13.7 4.8 L-12.55 5.65 -10.6 5.9 Q-10.95 3.3 -8.75 1.65 -5.8 -0.5 -5.1 -2.1 -5.1 -0.65 -1.7 1.8 -2.45 -2.4 0.15 -4.35 0.4 -0.7 4.35 1.3 3.6 -0.4 4.55 -2.1 4.85 -1.5 6.65 0.6 8.0 2.1 8.1 4.05 L9.55 3.1 Q10.5 2.2 10.55 1.3 12.4 4.05 11.4 7.85 L12.5 7.8 Q13.25 7.7 13.1 7.1 13.65 8.55 13.1 9.35 L12.55 10.1 12.75 13.9 Q11.1 15.15 11.05 14.8 L11.1 10.2 9.75 9.95 10.5 7.75 8.45 8.0 Q8.35 6.65 8.8 5.85 L5.15 5.95 4.75 4.05 Q1.25 6.25 -0.45 6.8" fill="#ffcd00" fill-rule="evenodd" stroke="none"/>
      <path d="M10.65 4.05 Q10.85 4.65 10.35 7.9 L9.1 8.1 8.45 8.0 Q8.35 6.7 8.8 5.85 4.45 6.6 5.1 5.85 L4.75 4.15 5.55 4.5 Q4.35 2.1 5.15 1.0 5.45 1.85 6.65 3.0 7.7 3.95 7.8 5.25 L9.3 5.05 Q10.35 5.05 10.65 4.05 M10.2 8.75 Q12.05 9.15 12.65 8.5 12.75 10.4 12.05 10.75 L12.65 14.05 Q11.55 14.8 11.05 14.8 11.2 10.1 11.0 10.1 L9.75 9.95 10.2 8.75 M-9.35 7.25 L-9.5 6.4 -9.0 7.4 -12.25 10.0 Q-11.45 11.95 -10.6 13.1 L-12.0 13.7 -12.15 15.6 -13.4 14.95 -14.2 11.15 Q-13.55 11.3 -12.25 10.65 -12.95 9.8 -12.95 6.4 -11.05 7.95 -9.35 7.25 M-2.35 4.8 Q-4.0 2.6 -3.85 1.5 L0.55 4.5 -0.25 2.6 Q-0.9 1.0 -0.7 -0.25 -0.65 0.55 1.0 1.65 L4.7 4.1 Q2.6 5.65 -0.45 6.8 -2.9 6.3 -4.9 4.3 L-5.35 6.15 -9.5 6.25 Q-9.5 4.35 -8.25 2.9 -8.3 4.05 -7.85 5.25 -7.5 2.65 -5.95 0.75 -5.8 2.45 -2.35 4.8" fill="#ffff94" fill-rule="evenodd" stroke="none"/>
      <path d="M-14.65 16.5 Q-13.95 17.25 -12.3 17.4 -12.0 17.4 -11.85 17.65 -11.75 17.95 -11.9 18.15 -12.35 18.95 -14.15 19.35 L-15.95 19.25 -16.1 19.1 Q-16.6 18.2 -15.45 16.6 -15.3 16.35 -15.05 16.35 -14.8 16.35 -14.65 16.5" fill="#9a0000" fill-rule="evenodd" stroke="none"/>
      <path d="M-15.0 17.2 Q-14.35 17.85 -12.6 18.0 -12.95 18.6 -14.05 18.75 L-15.35 18.7 -15.0 17.2" fill="#ffff94" fill-rule="evenodd" stroke="none"/>
      <path d="M15.85 18.1 L15.7 18.25 13.95 18.35 Q12.1 17.95 11.65 17.15 11.5 16.95 11.65 16.65 L12.05 16.4 Q13.8 16.25 14.4 15.5 14.65 15.35 14.85 15.35 L15.2 15.6 Q16.35 17.2 15.85 18.1" fill="#9a0000" fill-rule="evenodd" stroke="none"/>
      <path d="M14.75 16.2 L15.1 17.7 13.8 17.75 Q12.7 17.6 12.35 17.0 14.05 16.9 14.75 16.2" fill="#ffff94" fill-rule="evenodd" stroke="none"/>
    </g>
  </defs>
</svg>
